X:1
T:Miss Elenora Robertson
T:Miss Elenora Robertson
T:Robert Mackintosh
C:Robert Mackintosh
L:1/8
Q:1/8=232
M:4/4
K:Bb
V:1 treble 
V:1
|: F | B2 dB Ac AF | B2 dB Ac fe | db fd ec AF | GB Ac dB BF | B2 dB Ac AF | B2 dB Ac fe | %7
 db fd ec AF | GB Ac dB BF | DB, DF EG cB | AF Ac fd BF | DB, DF EG cB | Ac Fe dB BF | %13
 DB, DF EG cB | AF Ac dB df | gb ge df dB | Ac FA BB,B, :| %17

